X: 56
T:Glory of the West
M:4/4
L:1/8
K:Gm
BABA G2 G2| AGAG F2 F2| B2 AB| c2 Bc| d2 AB G2 G2| BABA G2 G2|AGAG F2 F2 | B2 AG c2 Bc| d2 AB G2 G2:|
|: dcd B2 fe dedc B2 B2| f2 fg c2 c2| f2 fg c2 c2| g2 ga f2 fg| d2 cd B2 B2 |f2 fg d2 cB|  cBAG F2 F2| B2 AB c2 Bc| d2 AB G2 G2:|

